X: 1366
T: Mevsimlere Aldanırım
C: Ömer Sami Güpgüp
O: Turkey
F: http://compmusic.upf.edu/node/140
N: nihavent--fantezi--sofyan--mevsimlere_aldanirim--omer_sami_gupgup
N: makam= nihavent
N: form= fantezi
N: usul= sofyan = 4/4
M: 4/4
L: 1/16
K: C _B _e  
Q: 1/4=96
%%MIDI tuningsystem comma53
d2g6 d4 g4  | z2b2 a2g2 f2g2 e2d2  | \
w:  ARANAĞME  |   | 
f2e6 e8  | c2e6 c4 e4  | g2e4d2 c2B2 A2B2  | 
w:   |   |   | 
d3c c2d2 c2d2 c2d2  | e3d d3c c3B B4  | \
w:   |   | 
c2d2 e2a2 g8  | d2g6 d4 g4  | 
w:   |  ARANAĞME  | 
z2b2 a2g2 f2g2 e2d2  | f2e6 e8  | c2e6 c4 e4  | \
w:   |   |   | 
g2e4d2 c2B2 A2B2  | 
w:   | 
d3c c2d2 c2d2 c2d2  | e3d d3c c3B B4  | \
w:   |   | 
A2B6 ^F2G6  | G4 B4 A2G2 z4  | 
w:   |  Mev sim le re   | 
d4 e2^f2 g8  | z4 ^f2e2 d8  | z2b2 a2g2 g2^f2 g4  | \
w:  al da nı rım   |  ka na rım    |  SAZ  | 
z2g4g2 g4 g4  | b4 a4 g2f2 g2e2  | 
w:  Git ti  gel mez   |  hâ lâ  o nu  a ra  | 
d16  | z2e2 d2c2 B2A2 G4  | G4 B4 A2G2 z4  | \
w:  rım    |  SAZ  |  Mev sim le re   | 
d4 e2^f2 g8  | z4 ^f2e2 d8  | 
w:  al da nı rım   |  ka na rım    | 
z2b2 a2g2 g2^f2 g4  | z2g4g2 g4 g4  | \
w:  SAZ  |  Git ti  gel mez   | 
b4 a4 g2f2 g2e2  | d16  | z2f2 e2d2 e2g2 f4  | 
w:  hâ lâ  o nu  a ra  |  rım    |  SAZ  | 
z2g4a2 f4 e2z2  | g2a6 f2e2 d2z2  | z4 e2d2 c8  | \
w:  Kor  mi sa li   |  a teş ler *  de   |  ya na rım    | 
z2c2 B2A2 ^F2G2 A4  | 
w:  SAZ  | 
A2B6 c4 d2z2  | e4 f2e2 d8  | z2g4e2 d8  | \
w:  Bu  aşk  ben de   |  sön me ye cek   |  an la dım    | 
z2e2 d2c2 B2c2 d4  | c2e6 c4 e2z2  | 
w:  SAZ  |  Bu  aşk  ben de   | 
g4 e2d2 c2B2 B2A2  | z2B4^F2 G8  | c2d2 e2f2 f2a2 g4  | \
w:  sön me ye cek   |  an la dım    |  SAZ  | 
z2g4a2 f4 e2z2  | 
w:  Kor  mi sa li   | 
g2a6 f2e2 d2z2  | z4 e2d2 c8  | z2c2 B2A2 ^F2G2 A4  | \
w:  a teş ler *  de   |  ya na rım    |  SAZ  | 
A2B6 c4 d2z2  | 
w:  Bu  aşk  ben de   | 
e4 f2e2 d8  | z2g4e2 d8  | z2e2 d2c2 B2c2 d4  | \
w:  sön me ye cek   |  an la dım    |  SAZ  | 
c2e6 c4 e2z2  | g4 e2d2 c2B2 B2A2  | 
w:  Bu  aşk  ben de   |  sön me ye cek   | 
z2B4^F2 G8  | c2d2 B2c2 A2B2 ^F2G2  | \
w:  an la dım    |  SAZ  | 
d2g6 d4 g4  | z2b2 a2g2 f2g2 e2d2  | 
w:  ARANAĞME  |   | 
f2e6 e8  | c2e6 c4 e4  | g2e4d2 c2B2 A2B2  | \
w:   |   |   | 
d3c c2d2 c2d2 c2d2  | 
w:   | 
e3d d3c c3B B4  | c2d2 e2a2 g8  | d2g6 d4 g4  | \
w:   |   |  ARANAĞME  | 
z2b2 a2g2 f2g2 e2d2  | 
w:   | 
f2e6 e8  | c2e6 c4 e4  | g2e4d2 c2B2 A2B2  | \
w:   |   |   | 
d3c c2d2 c2d2 c2d2  | 
w:   | 
e3d d3c c3B B4  | A2B6 ^F2G6  | G4 B4 A2G6  | \
w:   |   |  Coş kun  a kan   | 
d4 e2^f2 g2g2 z4  | 
w:  sel ler  *  gi bi   | 
f6e2 d8  | z2b2 a2g2 g2^f2 g4  | z2g2 g2g2 g8  | \
w:  çağ la rım    |  SAZ  |  Ya ra la rım   | 
b2a2 g2^f2 g6e2  | 
w:  ka na dık ça  dağ la  | 
d16  | z2e2 d2c2 B2A2 G4  | G4 B4 A2G6  | \
w:  rım    |  SAZ  |  Coş kun  a kan   | 
d4 e2^f2 g2g2 z4  | f6e2 d8  | 
w:  sel ler  *  gi bi   |  çağ la rım    | 
z2b2 a2g2 g2^f2 g4  | z2g2 g2g2 g8  | \
w:  SAZ  |  Ya ra la rım   | 
b2a2 g2^f2 g6e2  | d16  | z2f2 e2d2 e2g2 f4  | 
w:  ka na dık ça  dağ la  |  rım    |  SAZ  | 
g2a4f2 e4 z4  | g2a4f2 e8  | z2e4d2 c8  | \
w:  Re sim le re   |  ba kar  ba kar   |  ağ la rım    | 
z2c2 B2A2 ^F2G2 A4  | A4 B4 c2d6  | 
w:  SAZ  |  Göz yaş la rım   | 
e4 f2e2 d8  | z2g4e2 d8  | z2e2 d2c2 B2c2 d4  | \
w:  din me ye cek   |  an la dım    |  SAZ  | 
c4 e4 c2e6  | g4 e2d2 c2B2 B2A2  | 
w:  Göz yaş la rım   |  din me ye cek   | 
z2B4^F2 G8  | c2d2 e2g2 f2A2 g4  | g2a4f2 e4 z4  | \
w:  an la dım    |  SAZ  |  Re sim le re   | 
g2a4f2 e8  | z2e4d2 c8  | 
w:  ba kar  ba kar   |  ağ la rım    | 
z2c2 B2A2 ^F2G2 A4  | A4 B4 c2d6  | e4 f2e2 d8  | \
w:  SAZ  |  Göz yaş la rım   |  din me ye cek   | 
z2g4e2 d8  | z2e2 d2c2 B2c2 d4  | 
w:  an la dım    |  SAZ  | 
c4 e4 c2e6  | g4 e2d2 c2B2 B2A2  | z2B4^F2 G8  | \
w:  Göz yaş la rım   |  din me ye cek   |  an la dım    | 
c2d2 B2c2 A2B2 ^F2G2  | 
w:  SAZ  | 
|


